;FLAVOR:UltiGCode
;TIME:7916
;MATERIAL:11668
;MATERIAL2:0
;NOZZLE_DIAMETER:0.4
;Generated with Cura_SteamEngine 2.3.1

;LAYER_COUNT:53
;LAYER:0
M107
G10
G0 F4909.1 X50.588 Y50.5 Z.27
G0 X50.836 Y50.288
;TYPE:SKIRT
G11
G1 F1800 X68.027 Y37.089 E2.04815
G1 X68.45 Y36.815 E2.09578
G1 X68.745 Y36.674 E2.12668
G1 X88.765 Y28.374 E4.17471
G1 X89.244 Y28.219 E4.22229
G1 X89.565 Y28.159 E4.25315
G1 X111.058 Y25.321 E6.30187
G1 X111.561 Y25.295 E6.34947
G1 X111.887 Y25.321 E6.38037
G1 X133.379 Y28.144 E8.42881
G1 X133.872 Y28.249 E8.47644
G1 X134.18 Y28.358 E8.50732
G1 X154.21 Y36.647 E10.55583
G1 X154.659 Y36.876 E10.60346
G1 X154.928 Y37.062 E10.63437
G1 X172.125 Y50.251 E12.68239
G1 X172.499 Y50.588 E12.72997
G1 X172.711 Y50.836 E12.7608
G1 X185.911 Y68.027 E14.80901
G1 X186.185 Y68.45 E14.85664
G1 X186.326 Y68.745 E14.88754
G1 X194.627 Y88.769 E16.93596
G1 X194.782 Y89.248 E16.98354
G1 X194.842 Y89.569 E17.01439
G1 X197.679 Y111.06 E19.06291
G1 X197.705 Y111.563 E19.11051
G1 X197.679 Y111.89 E19.14151
G1 X194.856 Y133.378 E21.18957
G1 X194.751 Y133.87 E21.23712
G1 X194.642 Y134.178 E21.26799
G1 X186.356 Y154.206 E23.31622
G1 X186.127 Y154.654 E23.36377
G1 X185.941 Y154.924 E23.39475
G1 X172.749 Y172.126 E25.44332
G1 X172.412 Y172.5 E25.4909
G1 X172.164 Y172.712 E25.52173
G1 X154.973 Y185.911 E27.56988
G1 X154.55 Y186.185 E27.61751
G1 X154.255 Y186.326 E27.64841
G1 X134.235 Y194.626 E29.69644
G1 X133.756 Y194.781 E29.74402
G1 X133.435 Y194.841 E29.77488
G1 X111.942 Y197.679 E31.8236
G1 X111.439 Y197.705 E31.8712
G1 X111.113 Y197.679 E31.9021
G1 X89.621 Y194.856 E33.95054
G1 X89.128 Y194.751 E33.99817
G1 X88.82 Y194.642 E34.02905
G1 X68.789 Y186.352 E36.07768
G1 X68.34 Y186.123 E36.12531
G1 X68.071 Y185.937 E36.15622
G1 X50.875 Y172.749 E38.20412
G1 X50.501 Y172.412 E38.25169
G1 X50.289 Y172.164 E38.28252
G1 X37.089 Y154.973 E40.33073
G1 X36.815 Y154.55 E40.37836
G1 X36.674 Y154.255 E40.40926
G1 X28.374 Y134.232 E42.45756
G1 X28.219 Y133.753 E42.50513
G1 X28.159 Y133.432 E42.53599
G1 X25.322 Y111.94 E44.5846
G1 X25.296 Y111.437 E44.6322
G1 X25.322 Y111.111 E44.66311
G1 X28.144 Y89.623 E46.71116
G1 X28.249 Y89.13 E46.75879
G1 X28.358 Y88.822 E46.78967
G1 X36.644 Y68.794 E48.8379
G1 X36.873 Y68.346 E48.88544
G1 X37.059 Y68.076 E48.91643
G1 X50.251 Y50.874 E50.965
G1 X50.588 Y50.5 E51.01258
G1 X50.836 Y50.288 E51.04341
G10
G0 F4909.1 X52.413 Y52.183
G0 X53.182 Y53.182
G0 X53.224 Y53.224
G0 X53.154 Y53.154
;TYPE:WALL-INNER
G11
G1 F1800 X61.074 Y47.077 E51.98678
G1 X61.152 Y47.017 E51.99608
G1 X61.698 Y46.598 E52.06112
G1 X62.245 Y46.178 E52.12629
G1 X62.325 Y46.116 E52.13586
G1 X70.245 Y40.039 E53.07923
G1 X79.463 Y36.222 E54.02206
G1 X79.557 Y36.183 E54.03168
G1 X80.193 Y35.919 E54.09675
G1 X80.829 Y35.655 E54.16183
G1 X80.918 Y35.618 E54.17093
G1 X90.145 Y31.796 E55.11473
G1 X100.033 Y30.495 E56.0572
G1 X100.137 Y30.482 E56.0671
G1 X100.823 Y30.391 E56.1325
G1 X101.505 Y30.301 E56.19751
G1 X101.604 Y30.288 E56.20694
G1 X111.5 Y28.985 E57.15019
G1 X121.401 Y30.287 E58.09388
G1 X121.493 Y30.299 E58.10265
G1 X122.178 Y30.39 E58.16795
G1 X122.861 Y30.48 E58.23306
G1 X122.959 Y30.492 E58.24239
G1 X132.855 Y31.796 E59.18564
G1 X142.083 Y35.618 E60.12952
G1 X142.172 Y35.655 E60.13863
G1 X142.807 Y35.918 E60.20358
G1 X143.444 Y36.182 E60.26874
G1 X143.538 Y36.221 E60.27836
G1 X152.755 Y40.04 E61.22118
G1 X160.673 Y46.115 E62.16429
G1 X160.753 Y46.177 E62.17385
G1 X161.301 Y46.598 E62.23915
G1 X161.847 Y47.017 E62.30419
G1 X161.927 Y47.079 E62.31376
G1 X169.845 Y53.155 E63.25692
G1 X175.919 Y61.071 E64.19983
G1 X175.981 Y61.151 E64.20939
G1 X176.402 Y61.699 E64.2747
G1 X176.821 Y62.245 E64.33973
G1 X176.883 Y62.325 E64.3493
G1 X182.96 Y70.245 E65.29267
G1 X186.777 Y79.461 E66.23533
G1 X186.817 Y79.558 E66.24524
G1 X187.081 Y80.195 E66.3104
G1 X187.344 Y80.83 E66.37536
G1 X187.382 Y80.922 E66.38476
G1 X191.203 Y90.146 E67.32826
G1 X192.503 Y100.031 E68.27043
G1 X192.517 Y100.138 E68.28063
G1 X192.608 Y100.824 E68.34603
G1 X192.698 Y101.505 E68.41094
G1 X192.711 Y101.606 E68.42056
G1 X194.015 Y111.5 E69.36363
G1 X192.712 Y121.398 E70.30706
G1 X192.7 Y121.493 E70.31611
G1 X192.61 Y122.176 E70.38121
G1 X192.519 Y122.861 E70.44652
G1 X192.506 Y122.962 E70.45614
G1 X191.203 Y132.854 E71.39901
G1 X187.382 Y142.082 E72.34285
G1 X187.345 Y142.171 E72.35196
G1 X187.082 Y142.806 E72.41691
G1 X186.818 Y143.443 E72.48208
G1 X186.779 Y143.537 E72.49169
G1 X182.961 Y152.755 E73.43456
G1 X176.884 Y160.676 E74.37801
G1 X176.824 Y160.754 E74.38731
G1 X176.403 Y161.302 E74.45261
G1 X175.984 Y161.848 E74.51765
G1 X175.924 Y161.926 E74.52695
G1 X169.846 Y169.846 E75.47038
G1 X161.926 Y175.923 E76.41376
G1 X161.848 Y175.983 E76.42306
G1 X161.302 Y176.402 E76.48809
G1 X160.755 Y176.822 E76.55327
G1 X160.675 Y176.884 E76.56283
G1 X152.755 Y182.961 E77.5062
G1 X143.537 Y186.778 E78.44903
G1 X143.443 Y186.817 E78.45865
G1 X142.807 Y187.081 E78.52372
G1 X142.171 Y187.345 E78.5888
G1 X142.082 Y187.382 E78.59791
G1 X132.855 Y191.204 E79.5417
G1 X122.967 Y192.505 E80.48417
G1 X122.863 Y192.518 E80.49408
G1 X122.177 Y192.609 E80.55947
G1 X121.495 Y192.699 E80.62448
G1 X121.397 Y192.711 E80.63381
G1 X111.5 Y194.015 E81.57716
G1 X101.599 Y192.713 E82.52086
G1 X101.507 Y192.701 E82.52963
G1 X100.822 Y192.61 E82.59493
G1 X100.139 Y192.52 E82.66003
G1 X100.041 Y192.508 E82.66936
G1 X90.145 Y191.204 E83.61262
G1 X80.917 Y187.382 E84.5565
G1 X80.828 Y187.345 E84.56561
G1 X80.193 Y187.082 E84.63056
G1 X79.556 Y186.818 E84.69572
G1 X79.462 Y186.779 E84.70534
G1 X70.245 Y182.96 E85.64815
G1 X62.327 Y176.885 E86.59126
G1 X62.247 Y176.823 E86.60082
G1 X61.699 Y176.402 E86.66613
G1 X61.153 Y175.983 E86.73117
G1 X61.073 Y175.921 E86.74073
G1 X53.155 Y169.845 E87.6839
G1 X47.081 Y161.929 E88.6268
G1 X47.019 Y161.849 E88.63637
G1 X46.598 Y161.301 E88.70167
G1 X46.179 Y160.755 E88.76671
G1 X46.117 Y160.675 E88.77627
G1 X40.04 Y152.755 E89.71965
G1 X36.223 Y143.539 E90.6623
G1 X36.183 Y143.442 E90.67222
G1 X35.919 Y142.805 E90.73738
G1 X35.656 Y142.17 E90.80233
G1 X35.618 Y142.078 E90.81174
G1 X31.797 Y132.854 E91.75523
G1 X30.497 Y122.969 E92.69741
G1 X30.483 Y122.862 E92.70761
G1 X30.392 Y122.176 E92.773
G1 X30.302 Y121.495 E92.83792
G1 X30.289 Y121.394 E92.84754
G1 X28.986 Y111.5 E93.7906
G1 X30.289 Y101.605 E94.73375
G1 X30.301 Y101.507 E94.74308
G1 X30.391 Y100.823 E94.80827
G1 X30.481 Y100.139 E94.87347
G1 X30.494 Y100.038 E94.88309
G1 X31.797 Y90.146 E95.82596
G1 X35.618 Y80.918 E96.7698
G1 X35.655 Y80.829 E96.77891
G1 X35.918 Y80.194 E96.84386
G1 X36.182 Y79.557 E96.90902
G1 X36.221 Y79.463 E96.91864
G1 X40.039 Y70.245 E97.86151
G1 X46.116 Y62.324 E98.80496
G1 X46.176 Y62.246 E98.81426
G1 X46.597 Y61.698 E98.87956
G1 X47.016 Y61.152 E98.9446
G1 X47.076 Y61.074 E98.9539
G1 X53.154 Y53.154 E99.89733
G0 F4909.1 X53.224 Y53.224
G0 X53.752 Y53.752
G0 X53.822 Y53.822
G1 F1800 X53.389 Y54.363 E99.96281
G1 X53.088 Y54.989 E100.02845
G1 X52.935 Y55.666 E100.09404
G1 X52.936 Y56.359 E100.15953
G1 X53.092 Y57.035 E100.22509
G1 X53.407 Y57.686 E100.29344
G1 X57.719 Y61.997 E100.86964
G1 X60.537 Y64.613 E101.233
G1 X58.637 Y67.088 E101.52786
G1 X58.527 Y67.231 E101.54491
G1 X58.388 Y67.116 E101.55582
G1 X55.402 Y64.642 E101.92227
G1 X50.563 Y60.929 E102.49866
G1 X49.878 Y60.701 E102.56688
G1 X49.186 Y60.635 E102.63257
G1 X48.499 Y60.724 E102.69804
G1 X47.849 Y60.964 E102.76352
G1 X47.35 Y61.29 E102.81984
G1 X47.268 Y61.344 E102.82868
G1 X46.786 Y61.843 E102.88097
G1 X46.428 Y62.438 E102.93295
G1 X46.398 Y62.532 E102.94183
G1 X46.212 Y63.097 E102.99804
G1 X46.148 Y63.788 E103.06362
G1 X46.24 Y64.475 E103.12912
G1 X46.482 Y65.124 E103.19458
G1 X46.881 Y65.729 E103.26306
G1 X51.718 Y69.441 E103.83925
G1 X54.882 Y71.687 E104.20592
G1 X55.029 Y71.791 E104.22293
G1 X54.919 Y71.934 E104.23385
G1 X53.02 Y74.408 E104.52858
G1 X49.765 Y72.365 E104.89174
G1 X44.484 Y69.315 E105.46805
G1 X43.774 Y69.178 E105.53638
G1 X43.08 Y69.203 E105.60201
G1 X42.41 Y69.381 E105.66752
G1 X41.797 Y69.704 E105.733
G1 X41.269 Y70.156 E105.79868
G1 X40.859 Y70.715 E105.86419
G1 X40.582 Y71.35 E105.92966
G1 X40.452 Y72.032 E105.99527
G1 X40.48 Y72.726 E106.0609
G1 X40.661 Y73.395 E106.1264
G1 X40.985 Y74.008 E106.19192
G1 X41.459 Y74.554 E106.26025
G1 X46.74 Y77.603 E106.83651
G1 X50.139 Y79.4 E107.19984
G1 X48.945 Y82.282 E107.49464
G1 X48.876 Y82.449 E107.51171
G1 X48.712 Y82.374 E107.52262
G1 X45.185 Y80.757 E107.88928
G1 X39.551 Y78.423 E108.46557
G1 X38.829 Y78.38 E108.53392
G1 X38.145 Y78.495 E108.59947
G1 X37.503 Y78.76 E108.6651
G1 X36.937 Y79.161 E108.73065
G1 X36.542 Y79.601 E108.78653
G1 X36.474 Y79.676 E108.79562
G1 X36.139 Y80.284 E108.84788
G1 X35.948 Y80.95 E108.89986
G1 X35.943 Y81.046 E108.90852
G1 X35.908 Y81.643 E108.96503
G1 X36.026 Y82.327 E109.03062
G1 X36.292 Y82.968 E109.09621
G1 X36.695 Y83.533 E109.16179
G1 X37.235 Y84.012 E109.23
G1 X42.869 Y86.347 E109.80633
G1 X46.507 Y87.698 E110.17306
G1 X46.676 Y87.761 E110.19011
G1 X46.607 Y87.928 E110.20104
G1 X45.414 Y90.808 E110.49563
G1 X41.739 Y89.676 E110.85902
G1 X35.848 Y88.097 E111.43537
G1 X35.128 Y88.15 E111.50359
G1 X34.465 Y88.352 E111.56909
G1 X33.863 Y88.699 E111.63475
G1 X33.354 Y89.169 E111.70022
G1 X32.963 Y89.742 E111.76577
G1 X32.709 Y90.388 E111.83137
G1 X32.606 Y91.074 E111.89692
G1 X32.658 Y91.766 E111.9625
G1 X32.865 Y92.428 E112.02805
G1 X33.211 Y93.029 E112.09358
G1 X33.684 Y93.536 E112.15911
G1 X34.283 Y93.941 E112.22744
G1 X40.174 Y95.519 E112.80376
G1 X43.921 Y96.377 E113.16702
G1 X43.513 Y99.468 E113.46165
G1 X43.49 Y99.647 E113.47871
G1 X43.312 Y99.617 E113.4896
G1 X39.487 Y98.968 E113.85623
G1 X33.442 Y98.172 E114.43242
G1 X32.732 Y98.318 E114.50092
G1 X32.102 Y98.606 E114.56638
G1 X31.551 Y99.027 E114.63191
G1 X31.108 Y99.56 E114.6974
G1 X30.84 Y100.089 E114.75344
G1 X30.794 Y100.18 E114.7626
G1 X30.627 Y100.854 E114.81483
G1 X30.615 Y101.547 E114.86672
G1 X30.635 Y101.643 E114.87554
G1 X30.757 Y102.225 E114.93174
G1 X31.047 Y102.855 E114.99728
G1 X31.47 Y103.405 E115.06285
G1 X32.006 Y103.847 E115.1285
G1 X32.653 Y104.17 E115.19684
G1 X38.698 Y104.967 E115.77303
G1 X42.56 Y105.331 E116.13961
G1 X42.74 Y105.347 E116.15669
G1 X42.717 Y105.526 E116.16758
G1 X42.309 Y108.617 E116.46221
G1 X38.468 Y108.475 E116.82544
G1 X32.369 Y108.475 E117.40179
G1 X31.687 Y108.712 E117.47002
G1 X31.099 Y109.08 E117.53557
G1 X30.607 Y109.57 E117.60119
G1 X30.238 Y110.156 E117.66663
G1 X30.007 Y110.811 E117.73227
G1 X29.93 Y111.5 E117.79778
G1 X30.007 Y112.189 E117.8633
G1 X30.238 Y112.844 E117.92893
G1 X30.607 Y113.43 E117.99437
G1 X31.099 Y113.92 E118.05999
G1 X31.687 Y114.288 E118.12554
G1 X32.369 Y114.524 E118.19374
G1 X38.468 Y114.524 E118.7701
G1 X42.309 Y114.383 E119.13332
G1 X42.717 Y117.474 E119.42795
G1 X42.74 Y117.653 E119.44501
G1 X42.56 Y117.669 E119.45592
G1 X38.698 Y118.033 E119.82249
G1 X32.651 Y118.829 E120.39886
G1 X32.005 Y119.153 E120.46716
G1 X31.47 Y119.595 E120.53274
G1 X31.047 Y120.144 E120.59823
G1 X30.757 Y120.775 E120.66386
G1 X30.635 Y121.354 E120.71977
G1 X30.615 Y121.453 E120.72885
G1 X30.627 Y122.146 E120.78049
G1 X30.794 Y122.82 E120.832
G1 X30.842 Y122.916 E120.84161
G1 X31.108 Y123.439 E120.89706
G1 X31.551 Y123.972 E120.96255
G1 X32.102 Y124.395 E121.0282
G1 X32.734 Y124.681 E121.09375
G1 X33.441 Y124.827 E121.16197
G1 X39.487 Y124.031 E121.73825
G1 X43.312 Y123.382 E122.10488
G1 X43.49 Y123.352 E122.12194
G1 X43.513 Y123.531 E122.13283
G1 X43.921 Y126.623 E122.42756
G1 X40.174 Y127.481 E122.79082
G1 X34.283 Y129.058 E123.36712
G1 X33.684 Y129.464 E123.4355
G1 X33.211 Y129.971 E123.50103
G1 X32.863 Y130.571 E123.56657
G1 X32.658 Y131.235 E123.63224
G1 X32.606 Y131.925 E123.69763
G1 X32.709 Y132.612 E123.76328
G1 X32.963 Y133.257 E123.82879
G1 X33.354 Y133.83 E123.89434
G1 X33.863 Y134.301 E123.95988
G1 X34.465 Y134.647 E124.02549
G1 X35.128 Y134.851 E124.09104
G1 X35.848 Y134.902 E124.15925
G1 X41.739 Y133.323 E124.73561
G1 X45.413 Y132.192 E125.09888
G1 X46.607 Y135.072 E125.3935
G1 X46.676 Y135.239 E125.41057
G1 X46.507 Y135.302 E125.42149
G1 X42.869 Y136.653 E125.78822
G1 X37.235 Y138.987 E126.36451
G1 X36.695 Y139.466 E126.43272
G1 X36.292 Y140.031 E126.49831
G1 X36.026 Y140.672 E126.56389
G1 X35.908 Y141.356 E126.62948
G1 X35.943 Y141.95 E126.68571
G1 X35.948 Y142.049 E126.69463
G1 X36.139 Y142.715 E126.74643
G1 X36.474 Y143.322 E126.7984
G1 X36.544 Y143.4 E126.8078
G1 X36.937 Y143.839 E126.86348
G1 X37.503 Y144.239 E126.92898
G1 X38.145 Y144.504 E126.99461
G1 X38.829 Y144.619 E127.06016
G1 X39.55 Y144.576 E127.12841
G1 X45.185 Y142.242 E127.70479
G1 X48.711 Y140.624 E128.0714
G1 X48.875 Y140.549 E128.08845
G1 X48.944 Y140.716 E128.09938
G1 X50.138 Y143.598 E128.39418
G1 X46.74 Y145.397 E128.75751
G1 X41.459 Y148.446 E129.33377
G1 X40.985 Y148.992 E129.4021
G1 X40.66 Y149.604 E129.46758
G1 X40.479 Y150.275 E129.53326
G1 X40.452 Y150.967 E129.5987
G1 X40.582 Y151.649 E129.66431
G1 X40.859 Y152.285 E129.72987
G1 X41.269 Y152.843 E129.7953
G1 X41.796 Y153.295 E129.86091
G1 X42.41 Y153.618 E129.92647
G1 X43.08 Y153.796 E129.99198
G1 X43.773 Y153.821 E130.05752
G1 X44.484 Y153.685 E130.12592
G1 X49.765 Y150.635 E130.70223
G1 X53.02 Y148.592 E131.0654
G1 X54.919 Y151.066 E131.36012
G1 X55.029 Y151.209 E131.37717
G1 X54.882 Y151.313 E131.38807
G1 X51.718 Y153.559 E131.75474
G1 X46.881 Y157.271 E132.33092
G1 X46.482 Y157.875 E132.39933
G1 X46.24 Y158.525 E132.46487
G1 X46.148 Y159.212 E132.53037
G1 X46.212 Y159.903 E132.59595
G1 X46.397 Y160.466 E132.65196
G1 X46.428 Y160.562 E132.66101
G1 X46.786 Y161.157 E132.71275
G1 X47.268 Y161.656 E132.7644
G1 X47.353 Y161.711 E132.77349
G1 X47.849 Y162.036 E132.82953
G1 X48.499 Y162.276 E132.89501
G1 X49.186 Y162.365 E132.96047
G1 X49.878 Y162.299 E133.02616
G1 X50.563 Y162.071 E133.09439
G1 X55.402 Y158.358 E133.67078
G1 X58.388 Y155.884 E134.03722
G1 X58.527 Y155.769 E134.05427
G1 X58.637 Y155.912 E134.06519
G1 X60.537 Y158.387 E134.36005
G1 X57.719 Y161.003 E134.72341
G1 X53.407 Y165.314 E135.29961
G1 X53.092 Y165.965 E135.36795
G1 X52.936 Y166.641 E135.43351
G1 X52.935 Y167.334 E135.499
G1 X53.088 Y168.011 E135.56459
G1 X53.389 Y168.637 E135.63023
G1 X53.822 Y169.178 E135.69571
G1 X54.363 Y169.611 E135.7612
G1 X54.989 Y169.912 E135.82684
G1 X55.666 Y170.065 E135.89243
G1 X56.359 Y170.064 E135.95792
G1 X57.035 Y169.908 E136.02348
G1 X57.686 Y169.593 E136.09182
G1 X61.997 Y165.281 E136.66802
G1 X64.613 Y162.463 E137.03138
G1 X67.088 Y164.363 E137.32624
G1 X67.231 Y164.473 E137.34329
G1 X67.116 Y164.612 E137.3542
G1 X64.642 Y167.598 E137.72065
G1 X60.929 Y172.437 E138.29704
G1 X60.701 Y173.122 E138.36527
G1 X60.635 Y173.814 E138.43096
G1 X60.724 Y174.501 E138.49642
G1 X60.964 Y175.151 E138.5619
G1 X61.289 Y175.647 E138.61794
G1 X61.344 Y175.732 E138.62703
G1 X61.843 Y176.214 E138.67905
G1 X62.438 Y176.572 E138.73076
G1 X62.534 Y176.603 E138.73981
G1 X63.097 Y176.788 E138.79582
G1 X63.788 Y176.852 E138.8614
G1 X64.475 Y176.76 E138.9269
G1 X65.125 Y176.518 E138.99244
G1 X65.729 Y176.119 E139.06085
G1 X69.441 Y171.282 E139.63703
G1 X71.687 Y168.118 E140.0037
G1 X71.791 Y167.971 E140.02072
G1 X71.934 Y168.081 E140.03164
G1 X74.408 Y169.98 E140.32636
G1 X72.365 Y173.235 E140.68953
G1 X69.315 Y178.516 E141.26584
G1 X69.178 Y179.226 E141.33417
G1 X69.203 Y179.92 E141.39979
G1 X69.381 Y180.59 E141.4653
G1 X69.704 Y181.203 E141.53078
G1 X70.156 Y181.731 E141.59646
G1 X70.715 Y182.141 E141.66198
G1 X71.35 Y182.418 E141.72744
G1 X72.032 Y182.548 E141.79305
G1 X72.726 Y182.52 E141.85869
G1 X73.395 Y182.339 E141.92418
