;FLAVOR:UltiGCode
;TIME:8836
;MATERIAL:13896
;MATERIAL2:0
;NOZZLE_DIAMETER:0.4
;Generated with Cura_SteamEngine 2.3.1

;LAYER_COUNT:26
;LAYER:0
M107
G10
G0 F4909.1 X50.771 Y49.758 Z.27
;TYPE:SKIRT
G11
G1 F1800 X50.926 Y49.607 E0.02045
G1 X55.471 Y45.46 E0.60187
G1 X55.643 Y45.314 E0.62319
G1 X59.94 Y41.919 E1.1407
G1 X60.114 Y41.79 E1.16117
G1 X65.215 Y38.298 E1.74535
G1 X65.407 Y38.177 E1.7668
G1 X70.129 Y35.418 E2.28361
G1 X70.32 Y35.315 E2.30412
G1 X75.857 Y32.568 E2.88822
G1 X76.067 Y32.473 E2.91
G1 X81.456 Y30.271 E3.46014
G1 X81.66 Y30.195 E3.48071
G1 X86.826 Y28.487 E3.99489
G1 X87.033 Y28.427 E4.01525
G1 X93.035 Y26.885 E4.60086
G1 X93.261 Y26.835 E4.62273
G1 X98.984 Y25.802 E5.1723
G1 X99.2 Y25.771 E5.19292
G1 X104.625 Y25.172 E5.7087
G1 X104.839 Y25.156 E5.72898
G1 X111.008 Y24.895 E6.31247
G1 X111.237 Y24.893 E6.33411
G1 X116.727 Y25.057 E6.85315
G1 X116.941 Y25.071 E6.87341
G1 X123.089 Y25.673 E7.45718
G1 X123.315 Y25.703 E7.47872
G1 X128.695 Y26.623 E7.99451
G1 X128.908 Y26.667 E8.01506
G1 X134.935 Y28.127 E8.60109
G1 X135.152 Y28.188 E8.62239
G1 X140.315 Y29.835 E9.13452
G1 X140.518 Y29.908 E9.1549
G1 X146.301 Y32.196 E9.74261
G1 X146.513 Y32.288 E9.76445
G1 X151.752 Y34.816 E10.31416
G1 X151.945 Y34.918 E10.33479
G1 X156.675 Y37.616 E10.84938
G1 X156.859 Y37.729 E10.86979
G1 X162.018 Y41.156 E11.45507
G1 X162.202 Y41.288 E11.47647
G1 X166.487 Y44.598 E11.98815
G1 X166.652 Y44.735 E12.00841
G1 X171.311 Y48.865 E12.59677
G1 X171.477 Y49.024 E12.61849
G1 X175.314 Y52.956 E13.13767
G1 X175.46 Y53.115 E13.15807
G1 X179.45 Y57.802 E13.73975
G1 X179.591 Y57.98 E13.76121
G1 X182.809 Y62.361 E14.2749
G1 X182.93 Y62.539 E14.29524
G1 X186.273 Y67.804 E14.8846
G1 X186.388 Y68.001 E14.90616
G1 X188.97 Y72.796 E15.4208
G1 X189.066 Y72.989 E15.44117
G1 X191.621 Y78.62 E16.02552
G1 X191.708 Y78.83 E16.047
G1 X193.603 Y83.952 E16.56309
G1 X193.671 Y84.158 E16.58359
G1 X195.42 Y90.103 E17.1692
G1 X195.477 Y90.326 E17.19095
G1 X196.706 Y95.99 E17.73866
G1 X196.745 Y96.204 E17.75921
G1 X197.531 Y101.583 E18.27293
G1 X197.555 Y101.798 E18.29337
G1 X198.036 Y108.029 E18.88395
G1 X198.045 Y108.256 E18.90542
G1 X198.074 Y113.68 E19.41799
G1 X198.068 Y113.895 E19.43832
G1 X197.681 Y120.079 E20.02385
G1 X197.658 Y120.307 E20.04551
G1 X196.923 Y125.738 E20.56341
G1 X196.887 Y125.95 E20.58373
G1 X195.646 Y131.996 E21.16699
G1 X195.592 Y132.221 E21.18886
G1 X194.008 Y137.831 E21.73973
G1 X193.941 Y138.038 E21.76029
G1 X192.106 Y143.163 E22.27471
G1 X192.026 Y143.364 E22.29516
G1 X189.538 Y149.059 E22.88245
G1 X189.44 Y149.264 E22.90392
G1 X186.906 Y154.09 E23.41903
G1 X186.8 Y154.277 E23.43934
G1 X183.56 Y159.546 E24.02387
G1 X183.431 Y159.74 E24.04588
G1 X180.014 Y164.48 E24.59807
G1 X179.877 Y164.655 E24.61907
G1 X176.155 Y169.123 E25.16861
G1 X176.011 Y169.285 E25.18909
G1 X172.229 Y173.242 E25.70635
G1 X172.074 Y173.393 E25.7268
G1 X167.529 Y177.54 E26.30822
G1 X167.357 Y177.686 E26.32954
G1 X163.06 Y181.081 E26.84706
G1 X162.886 Y181.21 E26.86753
G1 X157.785 Y184.702 E27.4517
G1 X157.593 Y184.823 E27.47315
G1 X152.871 Y187.582 E27.98997
G1 X152.684 Y187.683 E28.01005
G1 X147.508 Y190.26 E28.55645
G1 X147.304 Y190.353 E28.57764
G1 X141.554 Y192.726 E29.16547
G1 X141.335 Y192.807 E29.18753
G1 X135.797 Y194.628 E29.73844
G1 X135.585 Y194.69 E29.75931
G1 X129.955 Y196.117 E30.30817
G1 X129.744 Y196.163 E30.32858
G1 X124.343 Y197.146 E30.84736
G1 X124.126 Y197.177 E30.86807
G1 X118.009 Y197.86 E31.44972
G1 X117.785 Y197.877 E31.47095
G1 X112.329 Y198.097 E31.98696
G1 X112.113 Y198.099 E32.00738
G1 X105.938 Y197.927 E32.59114
G1 X105.711 Y197.912 E32.61264
G1 X100.232 Y197.365 E33.13298
G1 X100.017 Y197.336 E33.15348
G1 X93.938 Y196.306 E33.73613
G1 X93.716 Y196.261 E33.75754
G1 X88.481 Y194.984 E34.26675
G1 X88.275 Y194.926 E34.28698
G1 X82.318 Y193.04 E34.87745
G1 X82.102 Y192.963 E34.89912
G1 X77.045 Y190.951 E35.41344
G1 X76.848 Y190.865 E35.43376
G1 X71.257 Y188.189 E36.01951
G1 X71.05 Y188.08 E36.04161
G1 X65.989 Y185.182 E36.59274
G1 X65.806 Y185.069 E36.61306
G1 X61.267 Y182.043 E37.12858
G1 X61.09 Y181.916 E37.14916
G1 X56.17 Y178.126 E37.73606
G1 X55.996 Y177.981 E37.75746
G1 X51.932 Y174.359 E38.2719
G1 X51.776 Y174.211 E38.29222
G1 X47.455 Y169.8 E38.87574
G1 X47.301 Y169.631 E38.89735
G1 X43.752 Y165.445 E39.41596
G1 X43.618 Y165.276 E39.43634
G1 X39.973 Y160.331 E40.01688
G1 X39.846 Y160.144 E40.03824
G1 X36.927 Y155.528 E40.55435
G1 X36.818 Y155.342 E40.57472
G1 X33.872 Y149.898 E41.15968
G1 X33.77 Y149.694 E41.18123
G1 X31.506 Y144.681 E41.70103
G1 X31.424 Y144.48 E41.72155
G1 X29.283 Y138.719 E42.30234
G1 X29.212 Y138.504 E42.32374
G1 X27.682 Y133.274 E42.83869
G1 X27.628 Y133.067 E42.8589
G1 X26.295 Y127.021 E43.44397
G1 X26.254 Y126.791 E43.46605
G1 X25.415 Y120.984 E44.02051
G1 X25.391 Y120.768 E44.04105
G1 X24.985 Y115.358 E44.55373
G1 X24.976 Y115.143 E44.57406
G1 X24.932 Y108.944 E45.15988
G1 X24.939 Y108.716 E45.18144
G1 X25.292 Y103.251 E45.69896
G1 X25.313 Y103.036 E45.71937
G1 X26.131 Y96.911 E46.30332
G1 X26.17 Y96.683 E46.32518
G1 X27.356 Y90.994 E46.87435
G1 X27.408 Y90.779 E46.89526
G1 X28.992 Y85.169 E47.44613
G1 X29.059 Y84.962 E47.46669
G1 X30.894 Y79.837 E47.98111
G1 X30.974 Y79.636 E48.00155
G1 X33.462 Y73.941 E48.58885
G1 X33.56 Y73.736 E48.61032
G1 X36.094 Y68.91 E49.12542
G1 X36.2 Y68.723 E49.14573
G1 X39.44 Y63.454 E49.73026
G1 X39.569 Y63.26 E49.75228
G1 X42.986 Y58.52 E50.30446
G1 X43.123 Y58.345 E50.32547
G1 X46.845 Y53.877 E50.875
G1 X46.989 Y53.715 E50.89548
G1 X50.771 Y49.758 E51.41275
G10
G0 F4909.1 X52.556 Y51.48
G0 X53.462 Y52.355
G0 X53.963 Y51.922
G0 X53.894 Y51.851
;TYPE:WALL-INNER
G11
G1 F1800 X58.206 Y47.969 E51.96104
G1 X62.766 Y44.407 E52.50784
G1 X67.561 Y41.173 E53.0544
G1 X72.565 Y38.284 E53.60043
G1 X77.776 Y35.742 E54.14834
G1 X83.134 Y33.577 E54.69444
G1 X88.643 Y31.787 E55.24183
G1 X94.253 Y30.388 E55.78821
G1 X99.96 Y29.382 E56.33584
G1 X105.71 Y28.779 E56.88219
G1 X111.5 Y28.575 E57.42969
G1 X117.289 Y28.78 E57.97709
G1 X123.039 Y29.383 E58.52345
G1 X128.746 Y30.389 E59.07107
G1 X134.356 Y31.788 E59.61745
G1 X139.865 Y33.578 E60.16485
G1 X145.223 Y35.743 E60.71095
G1 X150.434 Y38.285 E61.25886
G1 X155.438 Y41.174 E61.80489
G1 X160.24 Y44.413 E62.35226
G1 X164.798 Y47.974 E62.89886
G1 X169.105 Y51.852 E63.44654
G1 X173.125 Y56.016 E63.99349
G1 X176.841 Y60.443 E64.53969
G1 X180.246 Y65.129 E65.08708
G1 X183.307 Y70.027 E65.63289
G1 X186.036 Y75.158 E66.18209
G1 X188.393 Y80.453 E66.7298
G1 X190.367 Y85.879 E67.27544
G1 X191.956 Y91.422 E67.82035
G1 X193.165 Y97.108 E68.36969
G1 X193.97 Y102.836 E68.9163
G1 X194.373 Y108.611 E69.46337
G1 X194.374 Y114.389 E70.00939
G1 X193.971 Y120.164 E70.55646
G1 X193.166 Y125.892 E71.10307
G1 X191.958 Y131.575 E71.65211
G1 X190.368 Y137.122 E72.19741
G1 X188.394 Y142.548 E72.74305
G1 X186.037 Y147.843 E73.29076
G1 X183.314 Y152.964 E73.83886
G1 X180.247 Y157.872 E74.38577
G1 X176.843 Y162.556 E74.93295
G1 X173.126 Y166.985 E75.47936
G1 X169.106 Y171.149 E76.02631
G1 X164.799 Y175.027 E76.574
G1 X160.241 Y178.588 E77.12059
G1 X155.44 Y181.827 E77.66789
G1 X150.435 Y184.716 E78.214
G1 X145.224 Y187.258 E78.7619
G1 X139.866 Y189.423 E79.30801
G1 X134.357 Y191.213 E79.8554
G1 X128.747 Y192.612 E80.40178
G1 X123.04 Y193.618 E80.94941
G1 X117.29 Y194.221 E81.49576
G1 X111.5 Y194.424 E82.04325
G1 X105.711 Y194.22 E82.59065
G1 X99.961 Y193.617 E83.13701
G1 X94.254 Y192.611 E83.68463
G1 X88.644 Y191.212 E84.23101
G1 X83.135 Y189.422 E84.77841
G1 X77.777 Y187.257 E85.32451
G1 X72.566 Y184.715 E85.87242
G1 X67.561 Y181.826 E86.41853
G1 X62.76 Y178.587 E86.96582
G1 X58.202 Y175.026 E87.51242
G1 X53.895 Y171.148 E88.0601
G1 X49.87 Y166.979 E88.60773
G1 X46.158 Y162.555 E89.15346
G1 X42.747 Y157.861 E89.7018
G1 X39.684 Y152.957 E90.24819
G1 X36.961 Y147.835 E90.79637
G1 X34.608 Y142.55 E91.34307
G1 X32.634 Y137.125 E91.88861
G1 X31.043 Y131.574 E92.4343
G1 X29.835 Y125.892 E92.98325
G1 X29.03 Y120.164 E93.52987
G1 X28.627 Y114.389 E94.07693
G1 X28.626 Y108.611 E94.62295
G1 X29.029 Y102.836 E95.17002
G1 X29.834 Y97.108 E95.71663
G1 X31.043 Y91.421 E96.26607
G1 X32.634 Y85.871 E96.81167
G1 X34.606 Y80.452 E97.35661
G1 X36.963 Y75.157 E97.90433
G1 X39.686 Y70.036 E98.45242
G1 X42.753 Y65.128 E98.99934
G1 X46.158 Y60.442 E99.54673
G1 X49.874 Y56.015 E100.09293
G1 X53.894 Y51.851 E100.63988
G0 F4909.1 X53.963 Y51.922
G0 X66.608 Y65.014
G0 X66.677 Y65.085
G1 F1800 X63.548 Y68.324 E101.06546
G1 X60.654 Y71.775 E101.49107
G1 X58.006 Y75.418 E101.91667
G1 X55.62 Y79.237 E102.34222
G1 X53.506 Y83.214 E102.76784
G1 X51.673 Y87.329 E103.19354
G1 X50.134 Y91.561 E103.61909
G1 X48.892 Y95.89 E104.04468
G1 X47.956 Y100.296 E104.47034
G1 X47.329 Y104.756 E104.89596
G1 X47.014 Y109.249 E105.32159
G1 X47.014 Y113.691 E105.74136
G1 X47.329 Y118.244 E106.17264
G1 X47.956 Y122.704 E106.59826
G1 X48.892 Y127.11 E107.02392
G1 X50.134 Y131.439 E107.44951
G1 X51.673 Y135.671 E107.87506
G1 X53.51 Y139.794 E108.3016
G1 X58.001 Y147.574 E109.15052
G1 X60.654 Y151.225 E109.577
G1 X63.548 Y154.676 E110.00262
G1 X66.677 Y157.915 E110.4282
G1 X70.024 Y160.928 E110.85377
G1 X73.573 Y163.702 E111.27945
G1 X77.308 Y166.221 E111.70518
G1 X81.207 Y168.472 E112.13063
G1 X85.256 Y170.446 E112.55631
G1 X89.432 Y172.134 E112.98196
G1 X93.715 Y173.525 E113.40751
G1 X98.084 Y174.615 E113.83304
G1 X102.52 Y175.397 E114.25871
G1 X106.999 Y175.868 E114.68431
G1 X111.5 Y176.025 E115.10991
G1 X116.001 Y175.868 E115.53551
G1 X120.48 Y175.397 E115.96111
G1 X124.916 Y174.615 E116.38678
G1 X129.285 Y173.525 E116.8123
G1 X133.568 Y172.134 E117.23786
G1 X137.744 Y170.446 E117.66351
G1 X141.793 Y168.472 E118.08919
G1 X145.692 Y166.221 E118.51464
G1 X149.427 Y163.702 E118.94037
G1 X152.976 Y160.928 E119.36604
G1 X156.323 Y157.915 E119.79162
G1 X159.452 Y154.676 E120.2172
G1 X162.346 Y151.225 E120.64281
G1 X164.994 Y147.582 E121.06841
G1 X167.38 Y143.763 E121.49395
G1 X169.494 Y139.786 E121.91958
G1 X171.327 Y135.671 E122.34528
G1 X172.866 Y131.439 E122.77083
G1 X174.108 Y127.11 E123.19642
G1 X175.044 Y122.704 E123.62208
G1 X175.671 Y118.244 E124.04769
G1 X175.986 Y113.751 E124.47332
G1 X175.986 Y109.249 E124.89876
G1 X175.671 Y104.756 E125.32439
G1 X175.044 Y100.296 E125.75001
G1 X174.108 Y95.89 E126.17567
G1 X172.866 Y91.561 E126.60126
G1 X171.327 Y87.329 E127.02681
G1 X169.49 Y83.206 E127.45336
G1 X164.999 Y75.426 E128.30227
G1 X162.346 Y71.775 E128.72876
G1 X159.452 Y68.324 E129.15437
G1 X156.323 Y65.085 E129.57995
G1 X152.976 Y62.072 E130.00552
G1 X149.427 Y59.298 E130.4312
G1 X145.692 Y56.779 E130.85693
G1 X141.793 Y54.528 E131.28238
G1 X137.744 Y52.554 E131.70806
G1 X133.568 Y50.866 E132.13371
G1 X129.285 Y49.475 E132.55927
G1 X124.916 Y48.385 E132.98479
G1 X120.48 Y47.603 E133.41046
G1 X116.001 Y47.132 E133.83606
G1 X111.5 Y46.975 E134.26166
G1 X106.999 Y47.132 E134.68726
G1 X102.52 Y47.603 E135.11286
G1 X98.084 Y48.385 E135.53853
G1 X93.715 Y49.475 E135.96405
G1 X89.432 Y50.866 E136.38961
G1 X85.256 Y52.554 E136.81526
G1 X81.207 Y54.528 E137.24094
G1 X77.308 Y56.779 E137.66639
G1 X73.573 Y59.298 E138.09212
G1 X70.024 Y62.072 E138.5178
G1 X66.677 Y65.085 E138.94337
G0 F4909.1 X66.903 Y65.319
;TYPE:WALL-OUTER
G1 F1800 X63.79 Y68.542 E139.36681
G1 X60.91 Y71.975 E139.79027
G1 X58.276 Y75.6 E140.21372
G1 X55.902 Y79.4 E140.63714
G1 X53.798 Y83.357 E141.06065
G1 X51.975 Y87.451 E141.48415
G1 X50.443 Y91.661 E141.90752
G1 X49.208 Y95.969 E142.33102
G1 X48.276 Y100.352 E142.75448
G1 X47.652 Y104.79 E143.17799
G1 X47.339 Y109.26 E143.60144
G1 X47.339 Y113.68 E144.01913
G1 X47.652 Y118.21 E144.44824
G1 X48.276 Y122.648 E144.87176
G1 X49.208 Y127.031 E145.29521
G1 X50.443 Y131.339 E145.71871
G1 X51.975 Y135.549 E146.14208
G1 X53.8 Y139.646 E146.56592
G1 X58.274 Y147.397 E147.41166
G1 X60.91 Y151.025 E147.83544
G1 X63.79 Y154.458 E148.2589
G1 X66.903 Y157.681 E148.68235
G1 X70.233 Y160.679 E149.10578
G1 X73.764 Y163.439 E149.5293
G1 X77.48 Y165.945 E149.95285
G1 X81.36 Y168.185 E150.37623
G1 X85.388 Y170.149 E150.79971
G1 X89.543 Y171.828 E151.2232
G1 X93.805 Y173.212 E151.64667
G1 X98.152 Y174.297 E152.07006
G1 X102.565 Y175.075 E152.49352
G1 X107.022 Y175.544 E152.91703
G1 X111.5 Y175.7 E153.34046
G1 X115.978 Y175.544 E153.76389
G1 X120.435 Y175.075 E154.1874
G1 X124.848 Y174.297 E154.61086
G1 X129.195 Y173.212 E155.03425
G1 X133.457 Y171.828 E155.45771
G1 X137.612 Y170.149 E155.88121
G1 X141.64 Y168.185 E156.30469
G1 X145.52 Y165.945 E156.72807
G1 X149.236 Y163.439 E157.15162
G1 X152.767 Y160.679 E157.57514
G1 X156.097 Y157.681 E157.99857
G1 X159.21 Y154.458 E158.42202
G1 X162.09 Y151.025 E158.84548
G1 X164.724 Y147.4 E159.26892
G1 X167.098 Y143.6 E159.69234
G1 X169.202 Y139.643 E160.11585
G1 X171.025 Y135.549 E160.53935
G1 X172.557 Y131.339 E160.96272
G1 X173.792 Y127.031 E161.38623
G1 X174.724 Y122.648 E161.80968
G1 X175.348 Y118.21 E162.2332
G1 X175.661 Y113.74 E162.65665
G1 X175.661 Y109.26 E163.08001
G1 X175.348 Y104.79 E163.50346
G1 X174.724 Y100.352 E163.92697
G1 X173.792 Y95.969 E164.35043
G1 X172.557 Y91.661 E164.77393
G1 X171.025 Y87.451 E165.1973
G1 X169.2 Y83.354 E165.62114
G1 X164.726 Y75.603 E166.46687
G1 X162.09 Y71.975 E166.89066
G1 X159.21 Y68.542 E167.31412
G1 X156.097 Y65.319 E167.73756
G1 X152.767 Y62.321 E168.16099
G1 X149.236 Y59.561 E168.58451
G1 X145.52 Y57.055 E169.00807
G1 X141.64 Y54.815 E169.43144
G1 X137.612 Y52.851 E169.85493
G1 X133.457 Y51.172 E170.27842
G1 X129.195 Y49.788 E170.70188
G1 X124.848 Y48.703 E171.12528
G1 X120.435 Y47.925 E171.54874
G1 X115.978 Y47.456 E171.97225
G1 X111.5 Y47.3 E172.39568
G1 X107.022 Y47.456 E172.8191
G1 X102.565 Y47.925 E173.24262
G1 X98.152 Y48.703 E173.66607
G1 X93.805 Y49.788 E174.08947
G1 X89.543 Y51.172 E174.51293
G1 X85.388 Y52.851 E174.93642
G1 X81.36 Y54.815 E175.35991
G1 X77.48 Y57.055 E175.78328
G1 X73.764 Y59.561 E176.20684
G1 X70.233 Y62.321 E176.63036
G1 X66.903 Y65.319 E177.05379
G0 F4909.1 X66.62 Y65.003
G0 X53.963 Y51.922
G0 X53.665 Y51.62
G1 F1800 X57.992 Y47.724 E177.60401
G1 X62.571 Y44.147 E178.15311
G1 X67.39 Y40.897 E178.70239
G1 X72.41 Y37.998 E179.2502
G1 X77.645 Y35.445 E179.8006
G1 X83.023 Y33.272 E180.34874
G1 X88.553 Y31.475 E180.89823
G1 X94.187 Y30.07 E181.44695
G1 X99.914 Y29.06 E181.9965
G1 X105.693 Y28.454 E182.54561
G1 X111.5 Y28.25 E183.09471
G1 X117.306 Y28.455 E183.64372
G1 X123.085 Y29.061 E184.19283
G1 X128.812 Y30.071 E184.74238
G1 X134.446 Y31.476 E185.2911
G1 X139.976 Y33.273 E185.84058
G1 X145.354 Y35.446 E186.38872
G1 X150.589 Y37.999 E186.93912
G1 X155.609 Y40.898 E187.48693
G1 X160.432 Y44.151 E188.03669
G1 X165.009 Y47.727 E188.58558
G1 X169.334 Y51.621 E189.13554
G1 X173.365 Y55.796 E189.68396
G1 X177.097 Y60.242 E190.23251
G1 X180.517 Y64.949 E190.78233
G1 X183.592 Y69.87 E191.33069
G1 X186.327 Y75.013 E191.88115
G1 X188.69 Y80.321 E192.43022
G1 X190.677 Y85.781 E192.97929
G1 X192.274 Y91.354 E193.52714
G1 X193.485 Y97.051 E194.07754
G1 X194.292 Y102.791 E194.6253
G1 X194.698 Y108.602 E195.17578
G1 X194.699 Y114.398 E195.7235
G1 X194.293 Y120.209 E196.27398
G1 X193.486 Y125.949 E196.82174
G1 X192.275 Y131.647 E197.37223
G1 X190.678 Y137.22 E197.92008
G1 X188.691 Y142.68 E198.46915
G1 X186.328 Y147.988 E199.01822
G1 X183.596 Y153.126 E199.56813
G1 X180.518 Y158.052 E200.11704
G1 X177.099 Y162.757 E200.66666
G1 X173.366 Y167.205 E201.21541
G1 X169.335 Y171.38 E201.76383
G1 X165.01 Y175.274 E202.31379
G1 X160.433 Y178.85 E202.86268
G1 X155.611 Y182.103 E203.41236
G1 X150.59 Y185.002 E203.96025
G1 X145.355 Y187.555 E204.51065
